src/lib/packages/icons/src/assets/filled/hockey-stick-puck.svg

<svg width="24" height="24" viewBox="0 0 24 24" fill="none" xmlns="http://www.w3.org/2000/svg">
<path d="M15 19.5V18.5C15 17.5 15.5 17 16.5 17H19.5C20.5 17 21 17.5 21 18.5V19.5C21 20.5 20.5 21 19.5 21H16.5C15.5 21 15 20.5 15 19.5ZM5.95001 13.25H4.5C3.26 13.25 2.25 14.26 2.25 15.5V19.5C2.25 20.74 3.26 21.75 4.5 21.75H5.95001C6.12001 21.75 6.25 21.62 6.25 21.45V13.55C6.25 13.38 6.12001 13.25 5.95001 13.25ZM18.27 2.30003C17.88 2.15003 17.45 2.34002 17.3 2.73002L13.76 11.82C13.42 12.68 12.59 13.25 11.66 13.25H8.03998C7.86998 13.25 7.73999 13.38 7.73999 13.55V21.75H8.94C10.48 21.75 11.88 20.79 12.43 19.36L18.69 3.27003C18.84 2.88003 18.65 2.45003 18.26 2.30003H18.27Z" fill="currentColor"/>
</svg>

<svg xmlns="http://www.w3.org/2000/svg" width="24" height="24" fill="none"><path fill="currentColor" d="M15 19.5v-1c0-1 .5-1.5 1.5-1.5h3c1 0 1.5.5 1.5 1.5v1c0 1-.5 1.5-1.5 1.5h-3c-1 0-1.5-.5-1.5-1.5Zm-9.05-6.25H4.5c-1.24 0-2.25 1.01-2.25 2.25v4c0 1.24 1.01 2.25 2.25 2.25h1.45c.17 0 .3-.13.3-.3v-7.9c0-.17-.13-.3-.3-.3ZM18.27 2.3a.746.746 0 0 0-.97.43l-3.54 9.09c-.34.86-1.17 1.43-2.1 1.43H8.04c-.17 0-.3.13-.3.3v8.2h1.2c1.54 0 2.94-.96 3.49-2.39l6.26-16.09a.746.746 0 0 0-.43-.97h.01Z"/></svg>
